X:1
T:[ID 8v-9a (=8-187a)]
T:[ID 8v-9a (=8-187a)]
T:Bezeichnung standardisiert: Walzer Waltzer
T:Urheber unbekannt Datum in der hier transkribierten schriftlichen Quelle: 1792
C:Urheber unbekannt
C:Datum in der hier transkribierten schriftlichen Quelle: 1792
L:1/8
M:3/8
K:C
V:1 treble 
V:1
 C/c/B/c/d/c/ | g/e/d/c/B/c/ | aaa | a2 g | C/c/B/c/d/c/ | g/e/d/c/B/c/ | fdB | c2 z :| %8
 !fermata!G,[db][db] | G,[ec'][ec'] | A,[df][ce] | [Gd]3 | C/c/B/c/d/c/ | g/e/d/c/B/c/ | fdB | %15
 c2 z :|[K:F] !fermata!fAa |"^O)" fAa |"^O)" fAa | g/^f/g/a/g | ecb | ecb | ecb | f2 z :| %24

